X:7
T:Mr. Archibald LeDuc\,\ Belgrade
C:T. S. Macdonald
M:C|
L:1/8
K:G
%%text Warmly
B>GB<d c>GE<A | B>AG>F G<EE>G | B>GB<d c>GE<A     | G>ED>B, C<A,A,>G   |
B>BG<d c>GE<A | B>AG>F G<EE>F | G<A,F<A, E<A,F>A, | D>CB,>A, B,<G, G,2 ||
g>dB<e d>cB>A | B>de>g f<dd>e | g<Bf<B g<Bb>B     | a>fe>^c d<AA>d     |
g>dB<e d>cB<d | e>dB>A G<EE>G | B>GB<d c>GE<A     | d>cB>A B<G G2      |]

